X: 1296
T: Jim Kennedy's Favorite
R: reel
B: O'Neill's 1850 #1296
Z: Trish O'Neil
Z: Compacted via repeats and multiple endings in the 2nd strain [JC]
M: C|
L: 1/8
K: G
|: (3GGG (GA) (BE)E2 | BEdE BEE(F | G)(FG)A BAB^d |\
[1 (3(efg) (f^d) edeg :|2 (3(efg) (f^d)e2 |]
|: (ef) \
|  (3(gag) (3(fgf) edB^c | d2(ed) (Bd)d2 |\
[1 (3(gag) (3(fgf) edB^d | (3(efg) (f^d)e2 :|\
[2 bgaf gfe^d | (3(efg) (f^d)e2g2 |]
